X: 1
T: Il Prete Rosso
M: 4/4
L: 1/8
R: reel
K: Amin
a2 gf e2 d2 | cdBc A2 E2 | A2 AB cBcd | edef edcB :|
AEAE BEBE | cEcE BEBE | AEAE BEBE | cBcd edcB :|
